X:5
T:Rock of Ages, Let Our Song
C:German Askenazic Melody
Z:Public Domain
L:1/4
M:4/4
%%I:linebreak $
K:Dmaj
V:S clef=treble
%%MIDI program 1 19  %name="Church Organ"
V:S
D A, D G | F E D2 | A B E (F/G/) | (F E) D2 |
w:1.~Rock of Ag- es,|let our song| Praise Thy sav-ing_ |pow_er;
w:2.~Kind- ling new the|ho-ly lamps,| Priests, ap-proved in_ |suf_fering,
w:3.~Child- ren of the|mar-tyr race, |Whe-ther free or_| fet_tered,
%
V:S
D A, D G | F E D2 | A B E (F/G/) | (F E) D2 |
w:Thou, a-midst the| rag-ing foes,| Wast our shel-ter-ing| tow_er|
w:Pu-ri-fied the| na-tion’s shrine,| Brought to God their| of_fering|
w:Wake the e-choes| of the songs|Where ye may be| scat_tered|
%
V:S
A A [GB] [Gc] | [F2d2] [F2A2] | [Fd] [Fc] [GB] A | (A/2 G/2 F/2 G/2) E2 |
w:Fur- ious they as-|sailed us, |But Thine arm a-|vailed___ us,|
w:And His courts sur-|round-ing |Hear, in joy a-|bound___ ing,|
w:Yours the mes- sage|cheer-ing |That the time is| near___ ing|
%
V:S
|:F3/2 G/2 A2 | E3/2 F/2 G2 | F E D G |1 (FG) A2 :|2 (F E) D2 |] 
w:And Thy Word| Broke their sword| When our own strength|failed_ us|failed_ us|
w:Hap-py throngs| Sing- ing songs| With a might-y| sound_ing| sound_ing|
w:Which will see| All men free,| Ty-rants dis-ap-|pear_ing|pear_ing|
%
W:Ma'oz tzur y'shuati l'cha nae l'shabeach
W:tikon bet t'filati v'sham toda n'za beach l'
W:et tachin matbeach mitzar ham'nabeach
W:az egmore b'shir mizmor chanukat hamizbeach.

%%newpage
%%center  Christmas

